X: 22058
T: Knockdhu
R: reel
M: 4/4
K: Aminor
A,2 ED CA,A,G,|A,CEG A2 E^F|G2 BG AG E2|DEGD EDB,G,|
A,2 ED CA,A,G,|A,CEG A2 E^F|G2 BG AG E2|1 DEGd, EDB,G,:|2 DEGA BAGB||
|:A2 aA gAaA|e2 ed cAAB|(3GGG BG AGE2|D3 E GABG|
A2 aA gAaA|e2 ed cAAB|(3GGG BG AGE2|DEGD EDB,G,:|

